app/assets/images/payment_icons/HKD.svg

<svg class="icon" width="38px" height="24px" viewBox="0 0 38 24" version="1.1" xmlns="http://www.w3.org/2000/svg" role="img" aria-labelledby="pi-HKD"><title id="pi-HKD">HKD</title><path d="M810.666667 512m-507.733334 0a507.733333 507.733333 0 1 0 1015.466667 0 507.733333 507.733333 0 1 0-1015.466667 0Z" fill="#00479D" /><path d="M661.333333 695.466667h-68.266666v-136.533334h-132.266667v136.533334H388.266667V358.4h68.266666v136.533333h132.266667V358.4h68.266667v337.066667zM994.133333 695.466667h-85.333333l-89.6-145.066667-46.933333 55.466667v89.6h-68.266667V358.4h68.266667V512l128-153.6h85.333333l-123.733333 145.066667 132.266666 192zM1143.466667 699.733333v38.4h-29.866667v-38.4c-59.733333-4.266667-98.133333-42.666667-106.666667-110.933333l59.733334-17.066667c4.266667 42.666667 21.333333 68.266667 46.933333 72.533334v-98.133334c-8.533333-4.266667-21.333333-4.266667-25.6-8.533333-46.933333-12.8-72.533333-46.933333-72.533333-98.133333 4.266667-55.466667 38.4-85.333333 98.133333-89.6v-38.4h29.866667v42.666666c46.933333 4.266667 76.8 34.133333 89.6 85.333334l-55.466667 17.066666c-4.266667-21.333333-12.8-38.4-34.133333-42.666666v89.6c4.266667 0 12.8 4.266667 25.6 8.533333 8.533333 4.266667 12.8 4.266667 17.066666 4.266667 42.666667 21.333333 64 46.933333 59.733334 85.333333-4.266667 59.733333-38.4 93.866667-102.4 98.133333z m-29.866667-209.066666v-85.333334c-21.333333 4.266667-34.133333 17.066667-34.133333 38.4-4.266667 25.6 8.533333 38.4 34.133333 46.933334z m29.866667 72.533333v85.333333c21.333333-8.533333 34.133333-21.333333 34.133333-42.666666 4.266667-21.333333-8.533333-34.133333-34.133333-42.666667 4.266667 0 4.266667 0 0 0z" fill="#FFFFFF" /></svg>

<svg class="icon" width="38" height="24" viewBox="0 0 38 24" version="1.1" xmlns="http://www.w3.org/2000/svg" role="img" aria-labelledby="pi-HKD"><title id="pi-HKD">HKD</title><path d="M302.93300000000005 512a507.733 507.733 0 101015.467 0 507.733 507.733 0 10-1015.467 0z" fill="#00479D"/><path d="M661.333 695.467h-68.266V558.933H460.8v136.534h-72.533V358.4h68.266v136.533H588.8V358.4h68.267v337.067zm332.8 0H908.8L819.2 550.4l-46.933 55.467v89.6H704V358.4h68.267V512l128-153.6H985.6L861.867 503.467l132.266 192zm149.334 4.266v38.4H1113.6v-38.4c-59.733-4.266-98.133-42.666-106.667-110.933l59.734-17.067C1070.933 614.4 1088 640 1113.6 644.267v-98.134c-8.533-4.266-21.333-4.266-25.6-8.533-46.933-12.8-72.533-46.933-72.533-98.133 4.266-55.467 38.4-85.334 98.133-89.6v-38.4h29.867v42.666c46.933 4.267 76.8 34.134 89.6 85.334l-55.467 17.066c-4.267-21.333-12.8-38.4-34.133-42.666v89.6c4.266 0 12.8 4.266 25.6 8.533 8.533 4.267 12.8 4.267 17.066 4.267 42.667 21.333 64 46.933 59.734 85.333-4.267 59.733-38.4 93.867-102.4 98.133zM1113.6 490.667v-85.334c-21.333 4.267-34.133 17.067-34.133 38.4-4.267 25.6 8.533 38.4 34.133 46.934zm29.867 72.533v85.333C1164.8 640 1177.6 627.2 1177.6 605.867c4.267-21.334-8.533-34.134-34.133-42.667 4.266 0 4.266 0 0 0z" fill="#FFF"/></svg>
